X:1
T:Oran nan Iasgairean
Z:Jack Campin, http://www.campin.me.uk/
B:Captain Eoghan Anderson: Measan Milis as an Lios (The Sweet Lapdog of Lismore), 1925
F:http://www.campin.me.uk/Music/Lismore.abc
I:last edit 17-12-2013
N:Related to "I will return to Kintail"
M:4/4
L:1/4
Q:1/4=100
K:FDor
GB  cF|dB  cF |GB  cf|eB GE |
GB  cF|dB  cF |G>B Gc|BG FF||
GB  fc|dB  cF |GB  fc|dB GF |
F>F GB|c>e f>e|dB  cd|BG FF|]

